X: 10
T:Bacca Pipes, Ascott
M:6/8
L:1/8
A:Ascott-under-Wychwood
P:A(AB2)2A
K:G
P:A
G3  G2A|BBA G2G|A2B A2G|FFG A3 |
d2e d2c|BB2 G2B|ABA D2D|G3  G3 ||
P:B
d2e d2c|B2A G3 |A2B A2G|F2G A3 |
d2e d2c|B2A G2B|ABA D2D|G3  G3 ||
